images/SYLO.svg

<svg height="250" viewBox="0 0 250 250" width="250" xmlns="http://www.w3.org/2000/svg"><path d="m250 125c0 69.046875-55.953125 125-125 125s-125-55.953125-125-125 55.953125-125 125-125 125 55.953125 125 125zm-61.132812 0c0-35.207031-28.660157-63.867188-63.867188-63.867188s-63.867188 28.660157-63.867188 63.867188 28.660157 63.867188 63.867188 63.867188 63.867188-28.660157 63.867188-63.867188zm0 0" fill="#e5661f"/></svg>

<svg xmlns="http://www.w3.org/2000/svg" xmlns:xlink="http://www.w3.org/1999/xlink" width="250px" height="250px" viewBox="0 0 250 250" version="1.1">
<g id="surface1">
<path style=" stroke:none;fill-rule:nonzero;fill:rgb(89.803922%,40.000001%,12.156863%);fill-opacity:1;" d="M 250 125 C 250 194.046875 194.046875 250 125 250 C 55.953125 250 0 194.046875 0 125 C 0 55.953125 55.953125 0 125 0 C 194.046875 0 250 55.953125 250 125 Z M 188.867188 125 C 188.867188 89.792969 160.207031 61.132812 125 61.132812 C 89.792969 61.132812 61.132812 89.792969 61.132812 125 C 61.132812 160.207031 89.792969 188.867188 125 188.867188 C 160.207031 188.867188 188.867188 160.207031 188.867188 125 Z M 188.867188 125 "/>
</g>
</svg>
